public/images/logo/microCMS_light.svg

<svg fill="none" height="200" viewBox="0 0 895 200" width="895" xmlns="http://www.w3.org/2000/svg"><path d="m174.998 0h-149.9983c-13.807 0-24.9997 11.1929-24.9997 25v150c0 13.807 11.1927 25 24.9997 25h149.9983c13.806 0 24.999-11.193 24.999-25v-150c0-13.8071-11.193-25-24.999-25z" fill="#2b2c30"/><g fill="#fff"><path d="m157.948 89.7373c-2.438-2.4375-6.4-2.4375-8.837 0l-52.1498 52.1497-7.0749-7.075-14.1373 14.138 7.0749 7.075 9.7249 9.725c2.4375 2.437 6.3999 2.437 8.8372 0l52.149-52.15 7.075 7.075 14.138-14.138z"/><path d="m47.4621 120.675 14.1375-14.137-7.075-7.0755 42.425-42.425 7.0754 7.075 14.137-14.1375-16.787-16.7875c-2.4379-2.4375-6.4004-2.4375-8.8379 0l-61.8625 61.85c-2.4375 2.4375-2.4375 6.4005 0 8.8375l16.7875 16.787z"/><path d="m129.661 61.4502c-2.438-2.4375-6.4-2.4375-8.838 0l-66.2864 66.2878 14.1373 14.137 56.5741-56.5748 7.075 7.075 14.137-14.1375z"/></g><path clip-rule="evenodd" d="m677.618 75.18c8.01 0 14.75 3.3 20.2 9.91v-27.93c-3.85-1.59-7.51-2.76-11-3.52s-7.03-1.13-10.64-1.13c-6.331 0-12.381 1.17-18.151 3.52s-10.84 5.61-15.21 9.79-7.85 9.15-10.46 14.92c-2.6 5.77-3.91 12.11-3.91 19.04s1.32 13.31 3.97 19.15c2.64 5.85 6.15 10.9 10.52 15.16s9.42 7.56 15.15 9.91 11.72 3.52 17.971 3.52c3.05 0 6.13-.3 9.26-.9s6.49-1.53 10.1-2.8l2.4-.84v-27.69c-6.01 6.37-12.78 9.55-20.32 9.55-3.45 0-6.651-.64-9.621-1.91s-5.55-3.02-7.75-5.25-3.93-4.85-5.17-7.88c-1.24-3.02-1.86-6.33-1.86-9.91s.62-6.76 1.86-9.79c1.24-3.02 2.95-5.63 5.11-7.82s4.75-3.92 7.75-5.19c3.01-1.27 6.27-1.91 9.801-1.91zm-259.853-9.69c0 6.87-5.61 12.43-12.52 12.43-6.911 0-12.521-5.57-12.521-12.43s5.61-12.43 12.521-12.43c6.91 0 12.52 5.57 12.52 12.43zm59.69 38.09c-3.77-2.55-7.57-3.82-11.42-3.82-2.08 0-4.03.36-5.83 1.07-1.8.72-3.39 1.73-4.75 3.04s-2.42 2.86-3.19 4.65c-.76 1.79-1.14 3.8-1.14 6.03s.38 4.12 1.14 5.91 1.8 3.34 3.13 4.65c1.32 1.31 2.9 2.33 4.75 3.04 1.84.72 3.81 1.07 5.89 1.07 4.09 0 7.89-1.39 11.42-4.18v18.38c-5.37 2.31-10.46 3.46-15.27 3.46-4.49 0-8.76-.76-12.8-2.27-4.05-1.51-7.61-3.68-10.7-6.51-3.08-2.82-5.55-6.21-7.39-10.14-1.84-3.94-2.76-8.33-2.76-13.19s.88-9.29 2.64-13.31 4.17-7.48 7.21-10.38 6.67-5.17 10.88-6.8 8.71-2.45 13.52-2.45c5.29 0 10.18 1.11 14.67 3.34v18.38zm-180.692-19.81h-21.76v61.22h21.76v-30.19c0-3.26.26-5.91.78-7.94s1.24-3.62 2.16-4.77 1.98-1.93 3.19-2.33c1.2-.4 2.48-.6 3.85-.6 1.6 0 3.01.22 4.21.66s2.18 1.25 2.95 2.45c.76 1.19 1.341 2.81 1.741 4.83.4 2.03.6 4.6.6 7.7v30.19h21.76v-30.19c0-10.11 3.49-15.16 10.46-15.16 1.28 0 2.48.2 3.61.6 1.12.4 2.1 1.15 2.95 2.27.84 1.11 1.48 2.66 1.92 4.65s.66 4.54.66 7.64v30.19h21.76v-39.74c0-4.06-.54-7.52-1.62-10.38s-2.55-5.19-4.39-6.98-4.05-3.1-6.61-3.94c-2.57-.84-5.29-1.25-8.18-1.25-9.06 0-16.03 3.86-20.92 11.58-4.81-7.64-11.78-11.46-20.92-11.46-7.371 0-14.021 2.82-19.961 8.47zm119.262 61.22v-61.22h-21.761v61.22zm98.081-61.23h-21.761v61.23h21.761v-26.26c0-5.73 1.26-10.08 3.79-13.07 2.53-2.98 6.31-4.48 11.36-4.48 3.37 0 6.49.72 9.38 2.15v-20.65c-.88-.16-1.66-.24-2.34-.24h-1.86c-4.49 0-8.41.97-11.78 2.92s-6.21 4.75-8.54 8.41v-10.03zm53.94 35.98c-.76-1.71-1.14-3.6-1.14-5.67 0-1.91.38-3.7 1.14-5.37s1.76-3.14 3.01-4.42c1.24-1.27 2.73-2.27 4.45-2.98 1.72-.72 3.55-1.07 5.47-1.07s3.751.36 5.471 1.07c1.72.72 3.21 1.71 4.45 2.98s2.24 2.76 3.01 4.48c.76 1.71 1.14 3.52 1.14 5.43s-.38 3.84-1.14 5.55-1.76 3.2-3.01 4.48c-1.24 1.27-2.72 2.27-4.45 2.98-1.72.72-3.551 1.07-5.471 1.07s-3.75-.36-5.47-1.07c-1.72-.72-3.21-1.71-4.45-2.98s-2.24-2.76-3.01-4.48zm-24.1-5.91c0-4.54.92-8.77 2.76-12.71s4.41-7.36 7.69-10.26 7.19-5.19 11.72-6.86 9.48-2.51 14.85-2.51c5.371 0 10.201.82 14.731 2.45s8.46 3.9 11.78 6.8c3.33 2.9 5.91 6.37 7.75 10.38 1.84 4.02 2.76 8.45 2.76 13.31s-.94 9.29-2.83 13.31c-1.88 4.02-4.47 7.48-7.75 10.38-3.29 2.9-7.23 5.15-11.84 6.74s-9.6 2.39-14.971 2.39c-5.37 0-10.18-.8-14.67-2.39s-8.36-3.86-11.6-6.8c-3.25-2.94-5.79-6.47-7.63-10.56-1.84-4.1-2.76-8.65-2.76-13.67zm164.702 31.15 15.39-89.99h23.32l18.151 47.98 18.03-47.98h23.32l15.39 89.99h-23.44l-7.81-51.8-21.4 51.8h-9.38l-20.321-51.8-7.82 51.8h-23.44zm165.582-71.55c2.57.99 5.13 2.53 7.69 4.59l9.38-18.26c-4.49-2.39-9.18-4.2-14.07-5.43s-9.58-1.85-14.07-1.85c-4.81 0-9.16.72-13.04 2.15-3.891 1.43-7.171 3.44-9.861 6.03-2.68 2.59-4.77 5.69-6.25 9.31s-2.22 7.66-2.22 12.11.7 8.14 2.1 11.04 3.25 5.31 5.53 7.22 4.89 3.44 7.81 4.6 5.911 2.21 8.961 3.16c2.57.88 4.75 1.67 6.55 2.39s3.27 1.49 4.39 2.33c1.12.83 1.92 1.75 2.4 2.74s.72 2.17.72 3.52c0 2.23-.94 4.22-2.83 5.97-1.88 1.75-4.75 2.62-8.6 2.62-3.37 0-6.77-.76-10.221-2.27-3.45-1.51-6.93-3.82-10.46-6.92l-10.1 18.86c9.78 6.76 20.401 10.14 31.861 10.14 5.53 0 10.48-.74 14.85-2.21s8.05-3.54 11.06-6.21c3.01-2.66 5.29-5.87 6.85-9.61s2.34-7.92 2.34-12.53c0-6.84-1.78-12.39-5.35-16.65s-9.2-7.66-16.89-10.2c-1.92-.64-3.87-1.23-5.83-1.79s-3.73-1.21-5.29-1.97-2.83-1.65-3.79-2.69c-.96-1.03-1.44-2.35-1.44-3.94 0-2.31.96-4.18 2.89-5.61 1.92-1.43 4.41-2.15 7.45-2.15 2.4 0 4.89.5 7.45 1.49z" fill="#2b2c30" fill-rule="evenodd"/></svg>

<svg width="895" height="200" viewBox="0 0 895 200" fill="none" xmlns="http://www.w3.org/2000/svg">
<path d="M174.998 0H24.9997C11.1927 0 0 11.1929 0 25V175C0 188.807 11.1927 200 24.9997 200H174.998C188.804 200 199.997 188.807 199.997 175V25C199.997 11.1929 188.804 0 174.998 0Z" fill="#2B2C30"/>
<path d="M157.948 89.7373C155.51 87.2998 151.548 87.2998 149.111 89.7373L96.9612 141.887L89.8863 134.812L75.749 148.95L82.8239 156.025L92.5488 165.75C94.9863 168.187 98.9487 168.187 101.386 165.75L153.535 113.6L160.61 120.675L174.748 106.537L157.948 89.7373Z" fill="white"/>
<path d="M47.4621 120.675L61.5996 106.538L54.5246 99.4625L96.9496 57.0375L104.025 64.1125L118.162 49.975L101.375 33.1875C98.9371 30.75 94.9746 30.75 92.5371 33.1875L30.6746 95.0375C28.2371 97.475 28.2371 101.438 30.6746 103.875L47.4621 120.662V120.675Z" fill="white"/>
<path d="M129.661 61.4502C127.223 59.0127 123.261 59.0127 120.823 61.4502L54.5366 127.738L68.6739 141.875L125.248 85.3002L132.323 92.3752L146.46 78.2377L129.661 61.4502Z" fill="white"/>
<path fill-rule="evenodd" clip-rule="evenodd" d="M677.618 75.18C685.628 75.18 692.368 78.48 697.818 85.09V57.16C693.968 55.57 690.308 54.4 686.818 53.64C683.328 52.88 679.788 52.51 676.178 52.51C669.847 52.51 663.797 53.68 658.027 56.03C652.257 58.38 647.187 61.64 642.817 65.82C638.447 70 634.967 74.97 632.357 80.74C629.757 86.51 628.447 92.85 628.447 99.78C628.447 106.71 629.767 113.09 632.417 118.93C635.057 124.78 638.567 129.83 642.937 134.09C647.307 138.35 652.357 141.65 658.087 144C663.817 146.35 669.807 147.52 676.058 147.52C679.108 147.52 682.188 147.22 685.318 146.62C688.448 146.02 691.808 145.09 695.418 143.82L697.818 142.98V115.29C691.808 121.66 685.038 124.84 677.498 124.84C674.048 124.84 670.847 124.2 667.877 122.93C664.907 121.66 662.327 119.91 660.127 117.68C657.927 115.45 656.197 112.83 654.957 109.8C653.717 106.78 653.097 103.47 653.097 99.89C653.097 96.31 653.717 93.13 654.957 90.1C656.197 87.08 657.907 84.47 660.067 82.28C662.227 80.09 664.817 78.36 667.817 77.09C670.827 75.82 674.087 75.18 677.618 75.18ZM417.765 65.49C417.765 72.36 412.155 77.92 405.245 77.92C398.334 77.92 392.724 72.35 392.724 65.49C392.724 58.63 398.334 53.06 405.245 53.06C412.155 53.06 417.765 58.63 417.765 65.49ZM477.455 103.58C473.685 101.03 469.885 99.76 466.035 99.76C463.955 99.76 462.005 100.12 460.205 100.83C458.405 101.55 456.815 102.56 455.455 103.87C454.095 105.18 453.035 106.73 452.265 108.52C451.505 110.31 451.125 112.32 451.125 114.55C451.125 116.78 451.505 118.67 452.265 120.46C453.025 122.25 454.065 123.8 455.395 125.11C456.715 126.42 458.295 127.44 460.145 128.15C461.985 128.87 463.955 129.22 466.035 129.22C470.125 129.22 473.925 127.83 477.455 125.04V143.42C472.085 145.73 466.995 146.88 462.185 146.88C457.695 146.88 453.425 146.12 449.385 144.61C445.335 143.1 441.775 140.93 438.685 138.1C435.605 135.28 433.135 131.89 431.295 127.96C429.455 124.02 428.535 119.63 428.535 114.77C428.535 109.91 429.415 105.48 431.175 101.46C432.935 97.44 435.345 93.98 438.385 91.08C441.425 88.18 445.055 85.91 449.265 84.28C453.475 82.65 457.975 81.83 462.785 81.83C468.075 81.83 472.965 82.94 477.455 85.17V103.55V103.58ZM296.763 83.77H275.003V144.99H296.763V114.8C296.763 111.54 297.023 108.89 297.543 106.86C298.063 104.83 298.783 103.24 299.703 102.09C300.623 100.94 301.683 100.16 302.893 99.76C304.093 99.36 305.373 99.16 306.743 99.16C308.343 99.16 309.753 99.38 310.953 99.82C312.153 100.26 313.133 101.07 313.903 102.27C314.663 103.46 315.244 105.08 315.644 107.1C316.044 109.13 316.244 111.7 316.244 114.8V144.99H338.004V114.8C338.004 104.69 341.494 99.64 348.464 99.64C349.744 99.64 350.944 99.84 352.074 100.24C353.194 100.64 354.174 101.39 355.024 102.51C355.864 103.62 356.504 105.17 356.944 107.16C357.384 109.15 357.604 111.7 357.604 114.8V144.99H379.364V105.25C379.364 101.19 378.824 97.73 377.744 94.87C376.664 92.01 375.194 89.68 373.354 87.89C371.514 86.1 369.304 84.79 366.744 83.95C364.174 83.11 361.454 82.7 358.564 82.7C349.504 82.7 342.534 86.56 337.644 94.28C332.834 86.64 325.864 82.82 316.724 82.82C309.353 82.82 302.703 85.64 296.763 91.29V83.77ZM416.025 144.99V83.77H394.264V144.99H416.025ZM514.106 83.76H492.345V144.99H514.106V118.73C514.106 113 515.366 108.65 517.896 105.66C520.426 102.68 524.206 101.18 529.256 101.18C532.626 101.18 535.746 101.9 538.636 103.33V82.68C537.756 82.52 536.976 82.44 536.296 82.44H534.436C529.946 82.44 526.026 83.41 522.656 85.36C519.286 87.31 516.446 90.11 514.116 93.77V83.74L514.106 83.76ZM568.046 119.74C567.286 118.03 566.906 116.14 566.906 114.07C566.906 112.16 567.286 110.37 568.046 108.7C568.806 107.03 569.806 105.56 571.056 104.28C572.296 103.01 573.786 102.01 575.506 101.3C577.226 100.58 579.056 100.23 580.976 100.23C582.896 100.23 584.727 100.59 586.447 101.3C588.167 102.02 589.657 103.01 590.897 104.28C592.137 105.55 593.137 107.04 593.907 108.76C594.667 110.47 595.047 112.28 595.047 114.19C595.047 116.1 594.667 118.03 593.907 119.74C593.147 121.45 592.147 122.94 590.897 124.22C589.657 125.49 588.177 126.49 586.447 127.2C584.727 127.92 582.896 128.27 580.976 128.27C579.056 128.27 577.226 127.91 575.506 127.2C573.786 126.48 572.296 125.49 571.056 124.22C569.816 122.95 568.816 121.46 568.046 119.74ZM543.946 113.83C543.946 109.29 544.866 105.06 546.706 101.12C548.546 97.18 551.116 93.76 554.396 90.86C557.676 87.96 561.586 85.67 566.116 84C570.646 82.33 575.596 81.49 580.966 81.49C586.337 81.49 591.167 82.31 595.697 83.94C600.227 85.57 604.157 87.84 607.477 90.74C610.807 93.64 613.387 97.11 615.227 101.12C617.067 105.14 617.987 109.57 617.987 114.43C617.987 119.29 617.047 123.72 615.157 127.74C613.277 131.76 610.687 135.22 607.407 138.12C604.117 141.02 600.177 143.27 595.567 144.86C590.957 146.45 585.967 147.25 580.596 147.25C575.226 147.25 570.416 146.45 565.926 144.86C561.436 143.27 557.566 141 554.326 138.06C551.076 135.12 548.536 131.59 546.696 127.5C544.856 123.4 543.936 118.85 543.936 113.83H543.946ZM708.648 144.98L724.038 54.99H747.358L765.509 102.97L783.539 54.99H806.859L822.249 144.98H798.809L790.999 93.18L769.599 144.98H760.219L739.898 93.18L732.078 144.98H708.638H708.648ZM874.23 73.43C876.8 74.42 879.36 75.96 881.92 78.02L891.3 59.76C886.81 57.37 882.12 55.56 877.23 54.33C872.34 53.1 867.65 52.48 863.16 52.48C858.35 52.48 854 53.2 850.12 54.63C846.229 56.06 842.949 58.07 840.259 60.66C837.579 63.25 835.489 66.35 834.009 69.97C832.529 73.59 831.789 77.63 831.789 82.08C831.789 86.53 832.489 90.22 833.889 93.12C835.289 96.02 837.139 98.43 839.419 100.34C841.699 102.25 844.309 103.78 847.229 104.94C850.149 106.1 853.14 107.15 856.19 108.1C858.76 108.98 860.94 109.77 862.74 110.49C864.54 111.21 866.01 111.98 867.13 112.82C868.25 113.65 869.05 114.57 869.53 115.56C870.01 116.55 870.25 117.73 870.25 119.08C870.25 121.31 869.31 123.3 867.42 125.05C865.54 126.8 862.67 127.67 858.82 127.67C855.45 127.67 852.05 126.91 848.599 125.4C845.149 123.89 841.669 121.58 838.139 118.48L828.039 137.34C837.819 144.1 848.44 147.48 859.9 147.48C865.43 147.48 870.38 146.74 874.75 145.27C879.12 143.8 882.8 141.73 885.81 139.06C888.82 136.4 891.1 133.19 892.66 129.45C894.22 125.71 895 121.53 895 116.92C895 110.08 893.22 104.53 889.65 100.27C886.08 96.01 880.45 92.61 872.76 90.07C870.84 89.43 868.89 88.84 866.93 88.28C864.97 87.72 863.2 87.07 861.64 86.31C860.08 85.55 858.81 84.66 857.85 83.62C856.89 82.59 856.41 81.27 856.41 79.68C856.41 77.37 857.37 75.5 859.3 74.07C861.22 72.64 863.71 71.92 866.75 71.92C869.15 71.92 871.64 72.42 874.2 73.41L874.23 73.43Z" fill="#2B2C30"/>
</svg>
